docs/.gitbook/assets/icon-keyboard-16@dark.svg

<svg width="32" height="32" viewBox="0 0 16 16" fill="none" xmlns="http://www.w3.org/2000/svg">
<rect x="0" y="0" width="16" height="16" fill="#181c1f"/>
<path fill-rule="evenodd" clip-rule="evenodd" d="M8 1C8.41421 1 8.75 1.33579 8.75 1.75V4H12.25C13.7688 4 15 5.23122 15 6.75V12.25C15 13.7688 13.7688 15 12.25 15H3.75C2.23122 15 1 13.7688 1 12.25V6.75C1 5.23122 2.23122 4 3.75 4H7.25V1.75C7.25 1.33579 7.58579 1 8 1ZM3.75 5.5C3.05964 5.5 2.5 6.05964 2.5 6.75V12.25C2.5 12.9404 3.05964 13.5 3.75 13.5H12.25C12.9404 13.5 13.5 12.9404 13.5 12.25V6.75C13.5 6.05964 12.9404 5.5 12.25 5.5H8H3.75ZM4 8.25C4 7.83579 4.33579 7.5 4.75 7.5H5.25C5.66421 7.5 6 7.83579 6 8.25C6 8.66421 5.66421 9 5.25 9H4.75C4.33579 9 4 8.66421 4 8.25ZM7 8.25C7 7.83579 7.33579 7.5 7.75 7.5H8.25C8.66421 7.5 9 7.83579 9 8.25C9 8.66421 8.66421 9 8.25 9H7.75C7.33579 9 7 8.66421 7 8.25ZM10 8.25C10 7.83579 10.3358 7.5 10.75 7.5H11.25C11.6642 7.5 12 7.83579 12 8.25C12 8.66421 11.6642 9 11.25 9H10.75C10.3358 9 10 8.66421 10 8.25ZM5 11.25C5 10.8358 5.33579 10.5 5.75 10.5H10.25C10.6642 10.5 11 10.8358 11 11.25C11 11.6642 10.6642 12 10.25 12H5.75C5.33579 12 5 11.6642 5 11.25Z" fill="#fff"/>
</svg>

<svg xmlns="http://www.w3.org/2000/svg" width="32" height="32" fill="none" viewBox="0 0 16 16"><path fill="#181c1f" d="M0 0h16v16H0z"/><path fill="#fff" fill-rule="evenodd" d="M8 1a.75.75 0 0 1 .75.75V4h3.5A2.75 2.75 0 0 1 15 6.75v5.5A2.75 2.75 0 0 1 12.25 15h-8.5A2.75 2.75 0 0 1 1 12.25v-5.5A2.75 2.75 0 0 1 3.75 4h3.5V1.75A.75.75 0 0 1 8 1M3.75 5.5c-.69 0-1.25.56-1.25 1.25v5.5c0 .69.56 1.25 1.25 1.25h8.5c.69 0 1.25-.56 1.25-1.25v-5.5c0-.69-.56-1.25-1.25-1.25zM4 8.25a.75.75 0 0 1 .75-.75h.5a.75.75 0 0 1 0 1.5h-.5A.75.75 0 0 1 4 8.25m3 0a.75.75 0 0 1 .75-.75h.5a.75.75 0 0 1 0 1.5h-.5A.75.75 0 0 1 7 8.25m3 0a.75.75 0 0 1 .75-.75h.5a.75.75 0 0 1 0 1.5h-.5a.75.75 0 0 1-.75-.75m-5 3a.75.75 0 0 1 .75-.75h4.5a.75.75 0 0 1 0 1.5h-4.5a.75.75 0 0 1-.75-.75" clip-rule="evenodd"/></svg>
